X:157
T:Chances. JJo8.157, The
%%VWML:JohnsonVol8-2184-p79-0
F:http://www.vwml.org/record/JohnsonVol8/2184/p79
Z:Transcribed by Simon Furey and Lewis Jones
Z:vmp.Simon Wilson 2013 www.village-music-project.org.uk
Z:Dance added by John Chambers 2017
M:9/8
L:1/8
%Q:3/8=130
K:G
|: c | TB2G Bcd efg | TB2G Bcd cAF | B2G Bcd efg | [G,G]2g (f/g/af)g2 :|
|: [G,G]2g (f/g/af) gdB | [G,G]2g faf bge | [G,G]2g (f/g/af) gdB | ecA dBG AFD :|
W: First Man foot it to the 2d Wo.
W:and turn .| 1st Wo. the same to
W:the 2d Man :| Cross over half
W:figure .| Right and Left :|
W:
T:Trip to White Conduit. JJo8.158
B:J.Johnson Choice Collection Vol 8 1758
Z:vmp.Simon Wilson 2013 www.village-music-project.org.uk
Z:Dance added by John Chambers 2017
M:2/4
L:1/8
%Q:1/2=100
K:A
|: E |\
ABcA | B2EB | c2Ac | TB2EB |\
c2Ac | defd | cAEG | A2A, :|\
|: A |\
cdef | e2ae | Tf2df | e2ae |
Tf2af | e2ca | fedc | TB2E2 |\
ABcA | B2EB | cBcA | B2EB |\
c2Ac | defa | edcB | A2A, :|
W:  Hands 4 across .| back again ..|
W:Lead down two Cu. and cast up one
W:Cu. Lead thro' the top Cu. and cast off
W:one Cu. .| Hands 4 round at Bottom,
W:and Right and Left at top ..|:
W:
